X:1
T:Preludium Nr.5
T:Preludium Nr.5
T:BWV 557
T:J. S. Bach
C:J. S. Bach
%%score { ( 1 2 ) | ( 3 4 ) | 5 }
L:1/8
Q:1/4=35
M:4/4
K:G
V:1 treble nm="Órgano de tubos" snm="Org."
V:2 treble 
V:3 bass 
V:4 bass 
V:5 bass-8 
V:1
"^Grave"!ff! B8 | z c2 d e4 | !arpeggio![Ad]2 [Bd]2 c4 | B2 z2 A2 A2 | %4
 G4 F2 z/[Q:1/4=92]"^Andante" D/E/F/ | G/F/G/A/ B/A/B/c/ d>e c>d | B>c A>B G>A FG | %7
 C/F/A B,/E/G A,/D/F G,/^C/E | z/ D/E/F/ z/ G/F/G/ z/ A/G/A/ z/ B/A/B/ | %9
 c2- c/A/d/c/ B2- B/c/4d/4c/B/ | A2 GA BFGA | B z c/e/d/=f/ e/g/B/d/ c/e/d/f/ | %12
 e/c/G/E/ z2 d/B/G/D/ z2 | c/A/F/C/ z2 B/G/D/B,/ z2 | z3/2 B,/ ^D/F/B/F/ G/E/B,/G,/ z2 | %15
 z3/2 A,/ ^C/E/A/E/ [DF] z/ D/ F/A/d/A/ | [GB] z/ G/ B/d/g/d/ [Be] z/ E/ ^G/B/e/B/ | %17
 ^c>d B>c A>B G>A | FA/G/ FE D2 z2 | z8 | z8 | z8 | z4 z3/2 D/ F/A/d/A/ | BA/G/ AE TF3 G | %24
[Q:1/4=52]"^Lento" G2 z2"^Fuga" z4 | z8 | z8 | z4 D2 G2- | GE F2- FD E2- | E^C D4 C2 | %30
 D2 =C2 B,A,B,C | G2 d2- dB c2- | cA B2- BG A2- | AF G4 F2 | GFGA BAB^c | d=c B2 c3 d/c/ | %36
 B3 c/B/ A3 B/A/ | GF GA/G/ F2 z F | G3 A/G/ F3 G/F/ | E3 F/E/ ^D2 E2- | E2 T^D2 E2 B2- | %41
 BG A2- AF GA/B/ | c2 z A B2 z G | A2 z F G2 z E | F2 z2 z4 | z4 A2 d2- | dB c2- d2 g2- | %47
 ge f2 e4 | d4 c3 d/c/ | B2 c4 TB2 | c2 z e ^f4 | e4 d4 | c4 B4 | A4 GAB^c | dc B2 c3 d/c/ | %55
 B3 c/B/ A3 B/A/ | G3 A/G/ F2 z2 | z4 A2 d2- | dB c4 BA | !fermata!B8 |] %60
V:2
 G4 G3 =F | E2 =F2 E2 AG | ^F2 G2 A4- | AG/F/ ED E2 D2- | D2 T^C3/2B,/4C/4 D2 x2 | x8 | x8 | x8 | %8
 x8 | x8 | F2 x6 | x8 | x8 | x8 | x8 | x8 | x8 | x8 | D3 ^C A,2 z2 | x8 | x8 | x8 | x8 | G2 E2 D4 | %24
 D2 z2 z4 | x8 | x8 | x8 | x8 | x8 | x8 | D2 F2 G3 A/G/ | F3 G/F/ E3 F/E/ | D3 E/D/ CB, CD/C/ | %34
 B,2 z D D2 z G | F2 G2 A4 | G4 F4 | E4 D2 z2 | x8 | z4 z2 B,2- | B,3 A, B,2 z2 | %41
 B,2 F2- F^D EF/G/ | A2 z F G2 z E | F2 z D E2 z ^C | D2 z2 z4 | D2 G2- GE F2 | G2 z2 cA B2 | %47
 A4 G3 A/G/ | F3 G/F/ E2 =F2 | G4 =F4 | E2 z2 A2 d2- | dB c2- cA B2- | BG A2- AF G2- | %53
 GE TF2 G2 z G | F2 G2 A4 | G4 F4 | E4 D2 z2 | D2 G2- GE F2 | G6- GF | G8 |] %60
V:3
 D4 z B, D2 | C2 B,2- B,A,/G,/ A,2 | !arpeggio![^F,A,]2 D2 E2 D2- | D2 z2 ^C2 A,2 | %4
 B,2 G,2 A,2 z2 |[K:treble] z/ D/E/F/ G/F/G/A/ B/G/E A/F/D | %6
 G/E/C F/D/B, E/C/A,[K:bass] D/A,/B,/G,/ | A,>F, G,>E, F,>D, E,>^C, | %8
 D,/F,/G,/A,/ z/ B,/A,/B,/[K:treble] z/ F/E/F/ z/ G/F/G/ | A/G/F/E/ F2- F/D/E/F/ G/A/4B/4A/G/ | %10
[K:bass] z/ D/C/D/ B,/D/F,/D/ G,/D/A,/D/ B,/D/F,/D/ | G,/G/=F/G/ EB, CDEB, | %12
 C z C/G,/E,/C,/ z2 B,/G,/D,/B,,/ | z2 A,/F,/C,/A,,/ z2 G,/D,/B,,/G,,/ | %14
 ^D,/F,/A,/ z/ z2 z2 E,/B,,/G,,/E,,/ | ^C,/E,/G,/ z/ z2 D,/F,/A,/ z/ z2 | %16
 G,/B,/D/ z/ z2 ^G,/B,/D/ z/ z2 | z/ E/F z/ D/E z/ ^C/D z/ B,/C | z F,/G,/ A,>G, A,2 z2 | z8 | z8 | %21
 z8 | z4 F,/A,/C/ z/ z2 | [G,D]2 [A,C]2 A,B, C2 | B,2 z2 G,2 D2- | DB, C2- CA, B,2- | %26
 B,G, A,2- A,F, G,2- | G,A,/E,/ TF,2 G,A, B,A,/G,/ | A,3 F, G,3 E, | F,3 D, E,F,G,A, | %30
 F,D,E,F, G,F,G,A, | B,G,A,D, E,3 C, | D,3 B,, C,3 A,, | B,,3 G,, A,,2 D,2 | E,D,E,F, G,F,G,A, | %35
 A,2 B,D E2 D2- | D2 C4 B,2- | B,2 A,2 A,2 D2- | DB, C2- CA, B,2- | B,G, A,2- A,F, G,F,/E,/ | %40
 F,4 G,2 z2 | z4 B,,2 E,2- | E,C, =D,2- D,B,, C,2- | C,A,, B,,2- B,,G,, A,,2 | A,2 D2- DB, =C2- | %45
 CA, B,2 z4 | E,2 z E F2 ED | ^C2 DD, B,2 A,2- | A,2 G,4 =F,2- | F,E,/D,/ E,D,/C,/ D,2 G,2- | %50
 G,E, A,4 z F, | G,2 z A, F,2 z G, | E,2 z F, D,2 z E, | C,2 D,2 E,F,G,A, | A,2 B,D E2 D2- | %55
 D2 C4 B,2- | B,2 A,2 A,2 D2 | B,A, B,A,/G,/ D3 C/D/ | B,D ED/C/ D3 C | !fermata!D8 |] %60
V:4
 G,8- | G,4 C,4 | D,2 [D,G,-]2 G,F,/E,/ F,>G, | G,3 F, E,2 F,2 | E,4 D,2 z2 |[K:treble] x8 | %6
 x6[K:bass] x2 | x8 | x4[K:treble] x4 | x8 |[K:bass] x8 | x8 | x8 | x8 | x8 | x8 | x8 | x8 | x8 | %19
 x8 | x8 | x8 | x8 | D,2 E,2 A,4 | G,2 z2 z4 | x8 | x8 | x8 | x8 | x8 | x8 | x8 | x8 | x8 | x8 | %35
 x8 | x8 | x8 | x8 | x8 | x8 | x8 | x8 | x8 | D,E,F,G, A,3 G, | F,2 E,D, C,CA,D, | x8 | x8 | x8 | %49
 x8 | x8 | x8 | x8 | x8 | x8 | x8 | x8 | x8 | x8 | x8 |] %60
V:5
 G,,8- | G,,4 C,4- | C,2 B,,2 A,,4 | G,,6 F,,2 | E,,4 D,,2 z2 | z8 | z8 | z8 | D,2 D,2 D,2 D,2 | %9
 D,8- | D,8 | G,8 | C, z z2 B,, z z2 | A,, z z2 G,, z z2 | ^D, z z2 E, z z2 | ^C, z z2 D, z z2 | %16
 G, z z2 ^G, z z2 | A,8- | A,3 A,, D,2 z/ D,/C,/D,/ | %19
 B,,/G,/D,/G,/ B,,/G,/G,,/G,/ E,/G,/D,/G,/ C,/G,/B,,/G,/ | %20
 A,,/A,/E,/A,/ ^C,/A,/A,,/A,/ F,/A,/E,/A,/ ^D,/A,/C,/A,/ | %21
 B,,/B,/F,/B,/ ^D,/B,/B,,/B,/ G,/B,/F,/B,/ E,/B,/=D,/B,/ | C,/A,/B,,/G,/ A,,/F,/G,,/E,/ F,, z z2 | %23
 G,,2 C,2 D,4 | G,,2 z2 z4 | z8 | z8 | z8 | z8 | z8 | z8 | z8 | z8 | z8 | z8 | D,2 G,2- G,E, F,2- | %36
 F,D, E,2- E,C, D,2- | D,2 ^C,2 D,4 | E,4 D,4 | C,4 B,,4- | B,,4 E,2 z2 | z8 | z8 | z8 | z8 | z8 | %46
 z8 | A,,2 D,2- D,B,, =C,2- | C,A,, B,,2- B,,G,, A,,2 | G,,8 | C,2 z ^C, D,2 z2 | z8 | z8 | z8 | %54
 D,2 G,2- G,E, F,2- | F,D, E,2- E,C, D,2- | D,B,, ^C,2 D,4- | D,8 | G,,8- | !fermata!G,,8 |] %60

